!!!OTL: Up in the Morning Early 
!!!id: HA028
**kern
*clefF4
*k[]
*G:
*M6/4
{4d
=1
2g
4a
2b
4cc
=2
4.dd
8ee#
4ff
2f}
{4f
=3
4.g
8a
4g
4.dd
8cc
8b
8a
=4
2.g
2b}
{4d
=5
2g
4a
2b
4cc
=6
4.dd
8ee#
4ff
2f}
{4f
=7
4.g
8a
4g
4.dd
8cc
8b
8a
=8
2.g
2dd}
4r
=9yy
{4.b
8cc
4b
2b
4b
=10
4.cc
8dd
4cc
2.cc}
=11yy
{4.dd
8ee
4ff
4gg
4ff
4ee
=12
2.dd
2ff}
{4b
=13
4.b
8cc
4b
2b
4b
=14
4cc
4dd
4ff
2gg}
{8ff
8ee
=15
4.dd
8cc
4b
4.a
8g
4ff
=16
2.g
2dd}
==
*-
!!!minrhy: 8
!!!meter: 6/4 
!!!cut: Up in the Morning Early 
!!!key: HA028  08  g 6/4 
!!!fog: a--b--a--bv-c--bs-cw-e--
!! Haydn: Volksliedbearbeitungen, Bd1
